X: 9077
T: Da Lerwick Lasses
R: reel
M: 4/4
K: Gmajor
dc|:BGG2 AFAc|BG~G2 g2dc|BGG2 AFAc|1 BGAF G2dc:|2 BGAF G2Bd||
|:g2ge fafe|d2fd fafd|g2gf ege^c|1 eaaf gede:|2 eaaf ge||

